X:1
T:Hark! A Voice Divides the Sky
T:Hark! A Voice Divides the Sky
T:Marcus Morris Wells, 1858
T:Charles Wesley, 1742
T:Public Domain Courtesy of the Cyber Hymnal™
T:Public Domain Courtesy of the Cyber Hymnal™
C:Marcus Morris Wells, 1858
Z:Public Domain
Z:Courtesy of the Cyber Hymnal™
%%score ( 1 2 ) ( 3 4 )
L:1/8
Q:1/4=150
M:3/4
K:G
V:1 treble 
V:2 treble 
V:3 bass 
V:4 bass 
V:1
 D4 D2 | [DG]4 [DG]2 | (B3 A) G2 | [FA]6 | [GB]4 [GB]2 | [Gd]4 [DG]2 | (F3 G) [DA]2 | [DG]6 D4 D2 | %8
w: 1.~Hark! A|voice di-|vides * the|sky,|hap- py|are the|faith- * ful|dead! In the|
w: 2.~Fol- lowed|by their|works, * they|go|where their|Head has|gone * be-|fore; Re- con-|
w: 3.~Who can|now la-|ment * the|lot|of a|saint in|Christ * de-|ceased? Let the|
w: 4.~Born in-|to the|world * a-|bove,|they our|hap- py|bro- * ther|greet, Bear him|
w: 5.~An- gels|catch th’ap-|prov- * ing|sound,|bow, and|bless the|just * a-|ward; Hail the|
 [DG]4 [DG]2 | (B3 A) G2 | [FA]6 | [GB]4 [GB]2 | [Gd]4 [DG]2 | (F3 G) [DA]2 | [DG]6 [Fc]4 [Fc]2 | %15
w: Lord who|sweet- * ly|die,|they from|all their|toils * are|freed; Them the|
w: ciled by|grace * be-|low,|grace has|o- pened|mer- * cy’s|door; Jus- ti-|
w: world, who|know * us|not,|call us|hope- less|and * un-|blessed: When from|
w: to the|throne * of|love,|place him|at the|Sav- * ior’s|feet; Je- sus|
w: heir with|glo- * ry|crowned,|now re-|joic- ing|with * his|Lord: Full- er|
 [GB]4 [GB]2 | ([FA]3 [GB]) [Ac]2 | [GB]6 | [Gd]4 [Gd]2 | [GB]4 [GB]2 | [Ac]4 [GB]2 | [FA]6 | %22
w: Spir- it|hath * de-|clared|blessed, un-|ut- ter-|a- bly|blessed;|
w: fied through|faith * a-|lone,|here they|knew their|sins for-|giv’n,|
w: flesh the|spir- * it|freed|hast- ens|home- ward|to re-|turn,|
w: smiles, and|says, * “Well|done,|good and|faith- ful|ser- vant|thou;|
w: joys or-|dained * to|know,|wait- ing|for the|gen- eral|doom,|
 D4 D2 | [DG]4 [DG]2 | (B3 A) G2 | [FA]6 | [GB]4 [GB]2 | [Gd]4 [DG]2 | (F3 G) [DA]2 | [DG]6 |] %30
w: Je- sus|is their|great * re-|ward,|Je- sus|is their|end- * less|rest.|
w: Here they|laid their|bur- * den|down,|hal- lowed,|and made|fit * for|Heav’n.|
w: Mor- tals|cry, “A|man * is|dead!”|An- gels|sing, “A|child * is|born!”|
w: En- ter,|and re-|ceive * thy|crown,|reign with|Me tri-|umph- * ant|now.”|
w: When th’arch-|an- gel’s|trump * shall|blow,|“Rise, ye|dead, to|judg- * ment|come!”|
V:2
 D4 D2 | x6 | D4 x2 | x6 | x6 | x6 | D4 x2 | x6 D4 D2 | x6 | D4 G2 | x6 | x6 | x6 | D4 x2 | x12 | %15
 x6 | x6 | x6 | x6 | x6 | x6 | x6 | D4 D2 | x6 | D4 x2 | x6 | x6 | x6 | D4 x2 | x6 |] %30
V:3
 [G,B,]4 [G,B,]2 | [G,B,]4 [G,B,]2 | (D3 C) [G,B,]2 | [D,D]6 | [G,D]4 [G,D]2 | [G,B,]4 [G,B,]2 | %6
 (A,3 B,) [D,C]2 | [G,,B,]6 [G,B,]4 [G,B,]2 | [G,B,]4 [G,B,]2 | (D3 C) [G,B,]2 | [D,D]6 | %11
 [G,D]4 [G,D]2 | [G,B,]4 [G,B,]2 | (A,3 B,) [D,C]2 | [G,,B,]6 [D,A,]4 [D,A,]2 | G,4 G,2 | %16
 [D,D]4 [D,D]2 | [G,D]6 | [G,B,]4 [G,B,]2 | [G,D]4 [G,D]2 | [F,D]4 [G,D]2 | [D,D]6 | %22
 [G,,B,]4 [G,,B,]2 | [G,,B,]4 [G,,B,]2 | (D3 C) [G,B,]2 | [D,D]6 | [G,D]4 [G,D]2 | %27
 [G,B,]4 [G,B,]2 | (A,3 B,) [D,C]2 | [G,,B,]6 |] %30
V:4
 x6 | x6 | G,4 x2 | x6 | x6 | x6 | D,4 x2 | x12 | x6 | G,4 x2 | x6 | x6 | x6 | D,4 x2 | x12 | %15
 G,4 G,2 | x6 | x6 | x6 | x6 | x6 | x6 | x6 | x6 | G,4 x2 | x6 | x6 | x6 | D,4 x2 | x6 |] %30

